X:297
T: Reigen (3-99), S. 270
N: P1072
O: Lothringen
S: PINCK, Louis: Verklingende Weisen, Bd3, Metz 1933]
N: 1. Melodie von der 1. Strophe
R: Tanzlied?]
M: 3/4
L: 1/8
K: G
G2 | G3FG2 | A2A2A2 | D3DD2 | A4z2
A3AA2 | A2B2^c2 | ^c3Bc2 | A4
B2 | G3FG2 | A2A2B2 | B4A2 | G4

